X: 22945
T: Larry's Delight
R: jig
M: 6/8
K: Gmajor
DBD BGE|GBd edB|A2A AGE|DEG AGE|D2D BGE|
GBd edB|1 A2A AGE|DBA GFE:|2 A/B/cA AGE|DBA Gga||
bag edB|GBG AGE|DGG Bdd|edB Aga
[1 bag edB|G/A/BG AGE|c2 c B/c/dB|AFA G2 g/a/:|
2 bag f/g/af|gGB DGB|c2c EAc|FAd GFE||

